svgs/thin/desktop.svg

<svg xmlns="http://www.w3.org/2000/svg" viewBox="0 0 576 512"><!--! Font Awesome Pro 6.6.0 by @fontawesome - https://fontawesome.com License - https://fontawesome.com/license (Commercial License) Copyright 2024 Fonticons, Inc. --><path d="M512 16c26.5 0 48 21.5 48 48l0 288c0 26.5-21.5 48-48 48l-167.8 0-.3 0-111.7 0-.3 0L64 400c-26.5 0-48-21.5-48-48L16 64c0-26.5 21.5-48 48-48l448 0zM64 416l158.6 0-13.3 80L136 496c-4.4 0-8 3.6-8 8s3.6 8 8 8l80 0 144 0 80 0c4.4 0 8-3.6 8-8s-3.6-8-8-8l-73.2 0-13.3-80L512 416c35.3 0 64-28.7 64-64l0-288c0-35.3-28.7-64-64-64L64 0C28.7 0 0 28.7 0 64L0 352c0 35.3 28.7 64 64 64zm161.4 80l13.3-80 98.4 0 13.3 80-125.1 0zM80 80l416 0 0 192L80 272 80 80zM64 80l0 192c0 8.8 7.2 16 16 16l416 0c8.8 0 16-7.2 16-16l0-192c0-8.8-7.2-16-16-16L80 64c-8.8 0-16 7.2-16 16z"/></svg>

<svg xmlns="http://www.w3.org/2000/svg" viewBox="0 0 576 512"><!--! Font Awesome Pro 6.5.2 by @fontawesome - https://fontawesome.com License - https://fontawesome.com/license (Commercial License) Copyright 2024 Fonticons, Inc. --><path d="M512 16c26.5 0 48 21.5 48 48V352c0 26.5-21.5 48-48 48H344.2h-.3H232.1h-.3H64c-26.5 0-48-21.5-48-48V64c0-26.5 21.5-48 48-48H512zM64 416H222.6l-13.3 80H136c-4.4 0-8 3.6-8 8s3.6 8 8 8h80H360h80c4.4 0 8-3.6 8-8s-3.6-8-8-8H366.8l-13.3-80H512c35.3 0 64-28.7 64-64V64c0-35.3-28.7-64-64-64H64C28.7 0 0 28.7 0 64V352c0 35.3 28.7 64 64 64zm161.4 80l13.3-80h98.4l13.3 80H225.4zM80 80H496V272H80L80 80zM64 80V272c0 8.8 7.2 16 16 16H496c8.8 0 16-7.2 16-16V80c0-8.8-7.2-16-16-16H80c-8.8 0-16 7.2-16 16z"/></svg>
